src/icons/solid/symbols/filter.svg

<svg width="24" height="24" viewBox="0 0 24 24" fill="none" xmlns="http://www.w3.org/2000/svg">
<g clip-path="url(#clip0_4388_315)">
<path fill-rule="evenodd" clip-rule="evenodd" d="M13.3726 5.33181H2.1478C1.84363 5.33181 1.55191 5.20395 1.33683 4.97635C1.12175 4.74876 1.00092 4.44007 1.00092 4.1182C1.00092 3.79634 1.12175 3.48765 1.33683 3.26006C1.55191 3.03246 1.84363 2.9046 2.1478 2.9046H13.3744C13.6002 2.3399 13.9782 1.8581 14.4612 1.51937C14.9442 1.18064 15.5108 1 16.0903 1C16.6697 1 17.2363 1.18064 17.7193 1.51937C18.2023 1.8581 18.5803 2.3399 18.8061 2.9046H21.8531C22.1573 2.9046 22.449 3.03246 22.6641 3.26006C22.8792 3.48765 23 3.79634 23 4.1182C23 4.44007 22.8792 4.74876 22.6641 4.97635C22.449 5.20395 22.1573 5.33181 21.8531 5.33181H18.807C18.5815 5.89709 18.2035 6.37948 17.7203 6.71864C17.2371 7.05781 16.6701 7.23871 16.0903 7.23871C15.5104 7.23871 14.9434 7.05781 14.4602 6.71864C13.977 6.37948 13.599 5.89709 13.3735 5.33181H13.3726ZM23 11.9989C23 12.6688 22.4862 13.2125 21.8531 13.2125H10.6292C10.404 13.7783 10.026 14.2613 9.54261 14.6009C9.05919 14.9405 8.49184 15.1217 7.91159 15.1217C7.33133 15.1217 6.76398 14.9405 6.28056 14.6009C5.79715 14.2613 5.41916 13.7783 5.19393 13.2125H2.1478C1.84363 13.2125 1.55191 13.0846 1.33683 12.857C1.12175 12.6294 1.00092 12.3207 1.00092 11.9989C1.00092 11.677 1.12175 11.3683 1.33683 11.1407C1.55191 10.9131 1.84363 10.7852 2.1478 10.7852H5.19576C5.42153 10.2206 5.79952 9.73875 6.28253 9.40002C6.76553 9.06129 7.33214 8.88065 7.91159 8.88065C8.49103 8.88065 9.05764 9.06129 9.54064 9.40002C10.0236 9.73875 10.4016 10.2206 10.6274 10.7852H21.8531C22.4862 10.7852 23 11.3289 23 11.9989ZM23 19.8795C23 20.5494 22.4862 21.0931 21.8531 21.0931H18.807C18.5815 21.6584 18.2035 22.1408 17.7203 22.4799C17.2371 22.8191 16.6701 23 16.0903 23C15.5104 23 14.9434 22.8191 14.4602 22.4799C13.977 22.1408 13.599 21.6584 13.3735 21.0931H2.14688C1.84271 21.0931 1.551 20.9652 1.33591 20.7376C1.12083 20.5101 1 20.2014 1 19.8795C1 19.5576 1.12083 19.2489 1.33591 19.0214C1.551 18.7938 1.84271 18.6659 2.14688 18.6659H13.3735C13.5993 18.1012 13.9773 17.6194 14.4603 17.2807C14.9433 16.9419 15.5099 16.7613 16.0893 16.7613C16.6688 16.7613 17.2354 16.9419 17.7184 17.2807C18.2014 17.6194 18.5794 18.1012 18.8052 18.6659H21.8522C22.4853 18.6659 22.9991 19.2096 22.9991 19.8795H23Z" fill="#3C3B44"/>
</g>
<defs>
<clipPath id="clip0_4388_315">
<rect width="24" height="24" fill="white"/>
</clipPath>
</defs>
</svg>

<svg xmlns="http://www.w3.org/2000/svg" width="24" height="24" fill="none" viewBox="0 0 24 24"><g clip-path="url(#a)"><path fill="currentColor" fill-rule="evenodd" d="M13.373 5.332H2.148c-.304 0-.596-.128-.811-.356A1.25 1.25 0 0 1 1 4.118c0-.322.12-.63.336-.858.215-.228.507-.355.81-.355h11.227a3.1 3.1 0 0 1 1.087-1.386A2.83 2.83 0 0 1 16.091 1c.579 0 1.145.18 1.628.52.483.338.861.82 1.087 1.385h3.047c.304 0 .596.127.811.355s.336.536.336.858-.12.63-.336.858a1.12 1.12 0 0 1-.81.356h-3.047a3.1 3.1 0 0 1-1.087 1.387c-.483.339-1.05.52-1.63.52s-1.147-.181-1.63-.52a3.1 3.1 0 0 1-1.087-1.387M23 11.999c0 .67-.514 1.213-1.147 1.213H10.63a3.1 3.1 0 0 1-1.086 1.389c-.484.34-1.051.52-1.631.52s-1.148-.18-1.631-.52a3.1 3.1 0 0 1-1.087-1.389H2.148c-.304 0-.596-.127-.811-.355A1.25 1.25 0 0 1 1 11.999c0-.322.12-.63.336-.858.215-.228.507-.356.81-.356h3.049A3.1 3.1 0 0 1 6.283 9.4a2.83 2.83 0 0 1 1.629-.52c.579 0 1.146.181 1.629.52s.86.82 1.086 1.385h11.226c.633 0 1.147.544 1.147 1.214m0 7.88c0 .67-.514 1.214-1.147 1.214h-3.046a3.1 3.1 0 0 1-1.087 1.387c-.483.34-1.05.52-1.63.52s-1.147-.18-1.63-.52a3.1 3.1 0 0 1-1.087-1.387H2.147c-.304 0-.596-.128-.811-.355A1.25 1.25 0 0 1 1 19.88c0-.322.12-.631.336-.859.215-.227.507-.355.81-.355h11.228a3.1 3.1 0 0 1 1.086-1.385 2.83 2.83 0 0 1 1.63-.52c.579 0 1.145.18 1.628.52.483.338.861.82 1.087 1.385h3.047c.633 0 1.147.544 1.147 1.213z" clip-rule="evenodd"/></g><defs><clipPath id="a"><path fill="currentColor" d="M0 0h24v24H0z"/></clipPath></defs></svg>
